X:7
T:The Merry Maiden   Jig   Allan's # 7
C:Trad/Anon
B:Allan's Irish Fiddler (pub. Mozart Allen,  Glascow) date unknown
Z:FROM ALLAN'S TO NOTEWORTHY, FROM NOTEWORTHY TO ABC, MIDI AND .TXT BY VINCE
BRENNAN Dec. 2002 (HTTP://WWW.SOSYOURMOM.COM)
I:abc2nwc
M:6/8
L:1/8
K:D
(d/2B/2)|AFD BAF|Ade fdB|AFD BAF|AFEE2B|
AFD BAF|Ade fdB|AdB AFE|FDD D2:|
|:B|AFA def|geg fdB|AFAd2e|faf gdB|
AFA def|gfe fdB|AdB AFE|FDD D2:|
